svg/star_cog_outline.svg

<svg xmlns="http://www.w3.org/2000/svg" viewBox="0 0 24 24"><path d="m10.29 10.13-4.38.37 3.32 2.88-.99 4.28L12 15.39l.76.46c-.26.48-.44 1-.57 1.54l-.19-.12L5.82 21l1.63-7.03L2 9.24l7.19-.61L12 2l2.81 6.63 7.19.61L18.8 12a6.98 6.98 0 0 0-4.02 1.43l-.01-.05 3.32-2.88-4.38-.37L12 6.09zm13.54 10.51-1 1.73c-.07.13-.2.13-.33.13l-1.23-.5c-.27.18-.54.34-.84.47l-.19 1.32c-.02.12-.13.21-.24.21h-2c-.14 0-.24-.09-.26-.21l-.19-1.32c-.31-.12-.59-.29-.85-.47l-1.24.5c-.12 0-.25 0-.31-.13l-1-1.73a.26.26 0 0 1 .06-.32l1.06-.82a4.2 4.2 0 0 1 0-1l-1.06-.82a.25.25 0 0 1-.06-.32l1-1.73c.07-.13.2-.13.31-.13l1.24.5c.26-.18.55-.34.85-.47l.19-1.32A.26.26 0 0 1 18 14h2c.11 0 .22.09.23.21l.19 1.32c.31.12.58.29.85.47l1.23-.5c.13 0 .26 0 .32.13l1 1.73c.06.11.03.24-.06.32l-1.06.82c.03.17.04.33.04.5s-.02.33-.04.5l1.07.82c.09.08.12.21.06.32M20.5 19c0-.83-.67-1.5-1.5-1.5s-1.5.67-1.5 1.5.66 1.5 1.5 1.5c.83 0 1.5-.67 1.5-1.5"/></svg>

<?xml version="1.0" encoding="UTF-8"?><!DOCTYPE svg PUBLIC "-//W3C//DTD SVG 1.1//EN" "http://www.w3.org/Graphics/SVG/1.1/DTD/svg11.dtd"><svg xmlns="http://www.w3.org/2000/svg" xmlns:xlink="http://www.w3.org/1999/xlink" version="1.1" id="mdi-star-cog-outline" width="24" height="24" viewBox="0 0 24 24"><path d="M10.29 10.13L5.91 10.5L9.23 13.38L8.24 17.66L12 15.39L12.76 15.85C12.5 16.33 12.32 16.85 12.19 17.39L12 17.27L5.82 21L7.45 13.97L2 9.24L9.19 8.63L12 2L14.81 8.63L22 9.24L18.8 12C17.29 12.05 15.91 12.57 14.78 13.43L14.77 13.38L18.09 10.5L13.71 10.13L12 6.09L10.29 10.13M23.83 20.64L22.83 22.37C22.76 22.5 22.63 22.5 22.5 22.5L21.27 22C21 22.18 20.73 22.34 20.43 22.47L20.24 23.79C20.22 23.91 20.11 24 20 24H18C17.86 24 17.76 23.91 17.74 23.79L17.55 22.47C17.24 22.35 16.96 22.18 16.7 22L15.46 22.5C15.34 22.5 15.21 22.5 15.15 22.37L14.15 20.64C14.09 20.53 14.12 20.4 14.21 20.32L15.27 19.5C15.25 19.33 15.24 19.17 15.24 19S15.25 18.67 15.27 18.5L14.21 17.68C14.11 17.6 14.09 17.47 14.15 17.36L15.15 15.63C15.22 15.5 15.35 15.5 15.46 15.5L16.7 16C16.96 15.82 17.25 15.66 17.55 15.53L17.74 14.21C17.76 14.09 17.87 14 18 14H20C20.11 14 20.22 14.09 20.23 14.21L20.42 15.53C20.73 15.65 21 15.82 21.27 16L22.5 15.5C22.63 15.5 22.76 15.5 22.82 15.63L23.82 17.36C23.88 17.47 23.85 17.6 23.76 17.68L22.7 18.5C22.73 18.67 22.74 18.83 22.74 19S22.72 19.33 22.7 19.5L23.77 20.32C23.86 20.4 23.89 20.53 23.83 20.64M20.5 19C20.5 18.17 19.83 17.5 19 17.5S17.5 18.17 17.5 19 18.16 20.5 19 20.5C19.83 20.5 20.5 19.83 20.5 19Z" /></svg>
